images/logo.svg

<svg xmlns="http://www.w3.org/2000/svg" viewBox="0 0 56.6 63.1" enable-background="new 0 0 56.6 63.1"><path d="M38.1 37.6c-1.2-.7-2.8-1.3-4.6-1.9l-5.2 13.1-6.3-15.9c-3.3-1.1-6.3-2.6-8.8-4.4-.4-.3-.9-.7-1.2-1l11.3 28.3c1.4.4 2.9.5 4.6.5 2 0 3.8-.2 5.4-.6l6.7-16.8c-.5-.5-1.2-.9-1.9-1.3zm0 0c-1.2-.7-2.8-1.3-4.6-1.9l-5.2 13.1-6.3-15.9c-3.3-1.1-6.3-2.6-8.8-4.4-.4-.3-.9-.7-1.2-1l11.3 28.3c1.4.4 2.9.5 4.6.5 2 0 3.8-.2 5.4-.6l6.7-16.8c-.5-.5-1.2-.9-1.9-1.3zm0 0c-1.2-.7-2.8-1.3-4.6-1.9l-5.2 13.1-6.3-15.9c-3.3-1.1-6.3-2.6-8.8-4.4-.4-.3-.9-.7-1.2-1l11.3 28.3c1.4.4 2.9.5 4.6.5 2 0 3.8-.2 5.4-.6l6.7-16.8c-.5-.5-1.2-.9-1.9-1.3zm-28.7-36.4h-9.4v60.4h7.5v-9.6c-1.5-3.1-2.3-6.7-2.3-10.8h2.3v-20c-.5-1.5-.8-3.2-.8-4.9 0-4.3 1.5-7.9 4.5-10.7l-1.8-4.4zm28.7 36.4c-1.2-.7-2.8-1.3-4.6-1.9l-5.2 13.1-6.3-15.9c-3.3-1.1-6.3-2.6-8.8-4.4-.4-.3-.9-.7-1.2-1l11.3 28.3c1.4.4 2.9.5 4.6.5 2 0 3.8-.2 5.4-.6l6.7-16.8c-.5-.5-1.2-.9-1.9-1.3zm0 0c-1.2-.7-2.8-1.3-4.6-1.9l-5.2 13.1-6.3-15.9c-3.3-1.1-6.3-2.6-8.8-4.4-.4-.3-.9-.7-1.2-1l11.3 28.3c1.4.4 2.9.5 4.6.5 2 0 3.8-.2 5.4-.6l6.7-16.8c-.5-.5-1.2-.9-1.9-1.3zm-23.6-23.5c-.2.7-.3 1.4-.3 2.2 0 3 1.4 5.5 4.2 7.6l-3.9-9.8zm23.6 23.5c-1.2-.7-2.8-1.3-4.6-1.9l-5.2 13.1-6.3-15.9c-3.3-1.1-6.3-2.6-8.8-4.4-.4-.3-.9-.7-1.2-1l11.3 28.3c1.4.4 2.9.5 4.6.5 2 0 3.8-.2 5.4-.6l6.7-16.8c-.5-.5-1.2-.9-1.9-1.3zm9.1-36.4l-2.3 5.8c2.3 2.7 3.6 5.9 4 9.8l.2-.4v22.2c1 1.8 1.4 3.7 1.4 5.8 0 2.8-.5 5.2-1.4 7.4v9.9h7.6v-60.5h-9.5zm.7 18.1l-5.3 13.1c-1.9-1.1-4.1-2-6.7-2.9l5-12.6c.2.7.4 1.5.5 2.3h6.5z"/><path fill="#F26522" d="M48.9 16.8l-1 2.5h1.1c0-.9 0-1.7-.1-2.5z"/><path fill="#ED1C24" d="M12 27.5c-2.1-1.9-3.6-4-4.5-6.3v-4.9l4.5 11.2zm38.5 16.8c0 2.8-.5 5.2-1.4 7.4v-13.2c.9 1.7 1.4 3.7 1.4 5.8zm-1.4-5.8v13.3c-1 2.4-2.6 4.4-4.7 6.2-4.2 3.5-9.7 5.2-16.5 5.2-6.8 0-12.3-2-16.5-6-1.6-1.5-2.9-3.2-3.8-5.2v-10.8h5.2c0 4.6 1.4 8.2 4.2 10.9 1.8 1.8 3.9 3 6.4 3.6l2.3 5.8h5.3l2.3-5.8c2.1-.5 4-1.3 5.6-2.5 2.8-2 4.2-4.8 4.2-8.2 0-2.4-1-4.5-3-6.1l2.6-6.5.6.4c2.7 1.6 4.6 3.5 5.8 5.7zm-15.9 17.3l-2.3 5.8h-5.3l-2.3-5.8c1.4.4 2.9.5 4.6.5 1.9.1 3.7-.1 5.3-.5zm2.8-26.3l-2.4 6.2c-1.6-.5-3.5-.9-5.6-1.3-2.1-.4-4-.9-5.9-1.5l-3.6-9s.1 0 .1.1c2.4 1.8 5.5 3 9.4 3.7 2.9.5 5.6 1.1 8 1.8zm8.9-22.5l-4 10c-.8-2.7-2.2-5-4.1-6.8-2.5-2.2-5.5-3.4-8.9-3.4-4.1 0-7.4.9-9.9 2.6-1.8 1.3-2.9 2.8-3.4 4.7l-3.4-8.5c.4-.4.8-.8 1.3-1.1 3.8-3 9-4.5 15.4-4.5s11.6 1.8 15.4 5.3c.6.5 1.1 1.1 1.6 1.7z"/><path d="M22 32.9c-3.3-1.1-6.3-2.6-8.8-4.4-.4-.3-.9-.7-1.2-1l-4.5-11.2v4.9c-.5-1.5-.8-3.2-.8-4.9 0-4.3 1.5-7.9 4.5-10.7l3.4 8.5c-.2.7-.3 1.4-.3 2.2 0 3 1.4 5.5 4.2 7.6l3.5 9zm-14.5 8.3v10.8c-1.5-3.1-2.3-6.7-2.3-10.8h2.3zm35.1-8.8l-2.6 6.5c-.6-.5-1.2-.9-1.9-1.3-1.2-.7-2.8-1.3-4.6-1.9l2.4-6.2c2.6.9 4.8 1.8 6.7 2.9z"/><path fill="#ED1C24" d="M48.9 16.8l-1 2.5h-6.4c-.1-.8-.3-1.6-.5-2.3l4-10c2.2 2.7 3.5 5.9 3.9 9.8z"/></svg>

<?xml version="1.0" encoding="utf-8"?>
<!-- Generator: Adobe Illustrator 18.1.1, SVG Export Plug-In . SVG Version: 6.00 Build 0)  -->
<svg version="1.1" id="Layer_1" xmlns="http://www.w3.org/2000/svg" xmlns:xlink="http://www.w3.org/1999/xlink" x="0px" y="0px"
	 viewBox="0 0 56.6 63.1" enable-background="new 0 0 56.6 63.1" xml:space="preserve">
<g>
	<path d="M38.1,37.6c-1.2-0.7-2.8-1.3-4.6-1.9l-5.2,13.1L22,32.9c-3.3-1.1-6.3-2.6-8.8-4.4c-0.4-0.3-0.9-0.7-1.2-1l11.3,28.3
		c1.4,0.4,2.9,0.5,4.6,0.5c2,0,3.8-0.2,5.4-0.6L40,38.9C39.5,38.4,38.8,38,38.1,37.6z M38.1,37.6c-1.2-0.7-2.8-1.3-4.6-1.9
		l-5.2,13.1L22,32.9c-3.3-1.1-6.3-2.6-8.8-4.4c-0.4-0.3-0.9-0.7-1.2-1l11.3,28.3c1.4,0.4,2.9,0.5,4.6,0.5c2,0,3.8-0.2,5.4-0.6
		L40,38.9C39.5,38.4,38.8,38,38.1,37.6z M38.1,37.6c-1.2-0.7-2.8-1.3-4.6-1.9l-5.2,13.1L22,32.9c-3.3-1.1-6.3-2.6-8.8-4.4
		c-0.4-0.3-0.9-0.7-1.2-1l11.3,28.3c1.4,0.4,2.9,0.5,4.6,0.5c2,0,3.8-0.2,5.4-0.6L40,38.9C39.5,38.4,38.8,38,38.1,37.6z M9.4,1.2H0
		v60.4h7.5V52C6,48.9,5.2,45.3,5.2,41.2h2.3v-20C7,19.7,6.7,18,6.7,16.3c0-4.3,1.5-7.9,4.5-10.7L9.4,1.2z M38.1,37.6
		c-1.2-0.7-2.8-1.3-4.6-1.9l-5.2,13.1L22,32.9c-3.3-1.1-6.3-2.6-8.8-4.4c-0.4-0.3-0.9-0.7-1.2-1l11.3,28.3c1.4,0.4,2.9,0.5,4.6,0.5
		c2,0,3.8-0.2,5.4-0.6L40,38.9C39.5,38.4,38.8,38,38.1,37.6z M38.1,37.6c-1.2-0.7-2.8-1.3-4.6-1.9l-5.2,13.1L22,32.9
		c-3.3-1.1-6.3-2.6-8.8-4.4c-0.4-0.3-0.9-0.7-1.2-1l11.3,28.3c1.4,0.4,2.9,0.5,4.6,0.5c2,0,3.8-0.2,5.4-0.6L40,38.9
		C39.5,38.4,38.8,38,38.1,37.6z M14.5,14.1c-0.2,0.7-0.3,1.4-0.3,2.2c0,3,1.4,5.5,4.2,7.6L14.5,14.1z M38.1,37.6
		c-1.2-0.7-2.8-1.3-4.6-1.9l-5.2,13.1L22,32.9c-3.3-1.1-6.3-2.6-8.8-4.4c-0.4-0.3-0.9-0.7-1.2-1l11.3,28.3c1.4,0.4,2.9,0.5,4.6,0.5
		c2,0,3.8-0.2,5.4-0.6L40,38.9C39.5,38.4,38.8,38,38.1,37.6z M47.2,1.2L44.9,7c2.3,2.7,3.6,5.9,4,9.8l0.2-0.4v22.2
		c1,1.8,1.4,3.7,1.4,5.8c0,2.8-0.5,5.2-1.4,7.4v9.9h7.6V1.2H47.2z"/>
	<path d="M47.9,19.3l-5.3,13.1c-1.9-1.1-4.1-2-6.7-2.9l5-12.6c0.2,0.7,0.4,1.5,0.5,2.3H47.9z"/>
</g>
<g>
	<path fill="#F26522" d="M48.9,16.8l-1,2.5H49C49,18.4,49,17.6,48.9,16.8z"/>
	<path fill="#ED1C24" d="M12,27.5c-2.1-1.9-3.6-4-4.5-6.3v-4.9L12,27.5z"/>
	<path fill="#ED1C24" d="M50.5,44.3c0,2.8-0.5,5.2-1.4,7.4V38.5C50,40.2,50.5,42.2,50.5,44.3z"/>
	<path fill="#ED1C24" d="M49.1,38.5v13.3c-1,2.4-2.6,4.4-4.7,6.2c-4.2,3.5-9.7,5.2-16.5,5.2c-6.8,0-12.3-2-16.5-6
		c-1.6-1.5-2.9-3.2-3.8-5.2V41.2h5.2c0,4.6,1.4,8.2,4.2,10.9c1.8,1.8,3.9,3,6.4,3.6l2.3,5.8h5.3l2.3-5.8c2.1-0.5,4-1.3,5.6-2.5
		c2.8-2,4.2-4.8,4.2-8.2c0-2.4-1-4.5-3-6.1l2.6-6.5c0.2,0.1,0.4,0.3,0.6,0.4C46,34.4,47.9,36.3,49.1,38.5z"/>
	<path fill="#ED1C24" d="M33.2,55.8l-2.3,5.8h-5.3l-2.3-5.8c1.4,0.4,2.9,0.5,4.6,0.5C29.8,56.4,31.6,56.2,33.2,55.8z"/>
	<path fill="#ED1C24" d="M36,29.5l-2.4,6.2c-1.6-0.5-3.5-0.9-5.6-1.3c-2.1-0.4-4-0.9-5.9-1.5l-3.6-9c0,0,0.1,0,0.1,0.1
		c2.4,1.8,5.5,3,9.4,3.7C30.9,28.2,33.6,28.8,36,29.5z"/>
	<path fill="#ED1C24" d="M44.9,7l-4,10c-0.8-2.7-2.2-5-4.1-6.8c-2.5-2.2-5.5-3.4-8.9-3.4c-4.1,0-7.4,0.9-9.9,2.6
		c-1.8,1.3-2.9,2.8-3.4,4.7l-3.4-8.5c0.4-0.4,0.8-0.8,1.3-1.1c3.8-3,9-4.5,15.4-4.5c6.4,0,11.6,1.8,15.4,5.3
		C43.9,5.8,44.4,6.4,44.9,7z"/>
	<path d="M22,32.9c-3.3-1.1-6.3-2.6-8.8-4.4c-0.4-0.3-0.9-0.7-1.2-1L7.5,16.3v4.9C7,19.7,6.7,18,6.7,16.3c0-4.3,1.5-7.9,4.5-10.7
		l3.4,8.5c-0.2,0.7-0.3,1.4-0.3,2.2c0,3,1.4,5.5,4.2,7.6L22,32.9z"/>
	<path d="M7.5,41.2V52C6,48.9,5.2,45.3,5.2,41.2H7.5z"/>
	<path d="M42.6,32.4L40,38.9c-0.6-0.5-1.2-0.9-1.9-1.3c-1.2-0.7-2.8-1.3-4.6-1.9l2.4-6.2C38.5,30.4,40.7,31.3,42.6,32.4z"/>
	<path fill="#ED1C24" d="M48.9,16.8l-1,2.5h-6.4c-0.1-0.8-0.3-1.6-0.5-2.3l4-10C47.2,9.7,48.5,12.9,48.9,16.8z"/>
</g>
</svg>
